X: 37965
T: Spanky's Farewell
R: reel
M: 4/4
K: Aminor
A2 eA cBAB|ceBG E2 GE|F2 AF GABd|egec dcBG|
A2 eA cBAB|ceBG E2 GE|F2 AF GABd|1 eEGB ABcB:|2 eEGB A4||
a2 ga eAce|gdeg cdBG|F2 AF GABd|egec defg|
a2 ga eAce|gdeg cdBG|F2 AF GABd|1 eEGB ABce:|2 eEGB A4||

